assets/images/favicon.svg

<svg xmlns="http://www.w3.org/2000/svg" width="64" height="64" viewBox="0 0 64 64"><rect width="64" height="64" rx="14" fill="#fff"/><path d="M18 48V16h13.5C40.4 16 46 21.2 46 28.2 46 35 41 39 33.8 39.8L46.8 48h-10L25.5 40.4V48H18Zm7.5-25.2v10.4h5.3c4.6 0 7.2-2 7.2-5.2 0-3.4-2.8-5.2-7.2-5.2h-5.3Z" fill="#111"/></svg>

<svg xmlns="http://www.w3.org/2000/svg" width="64" height="64" viewBox="0 0 64 64" fill="none">
  <rect width="64" height="64" rx="14" fill="#FFFFFF"/>
  <rect x="4" y="4" width="56" height="56" rx="10" stroke="#111111" stroke-opacity="0.24"/>
  <path d="M18 48V16H31.5C40.4 16 46 21.2 46 28.2C46 35 41 39 33.8 39.8L46.8 48H36.8L25.5 40.4V48H18ZM25.5 22.8V33.2H30.8C35.4 33.2 38 31.2 38 28C38 24.6 35.2 22.8 30.8 22.8H25.5Z" fill="#111111"/>
</svg>
